client/src/assets/icons/clothes.svg

<svg width="58" height="58" viewBox="0 0 58 58" fill="none" xmlns="http://www.w3.org/2000/svg">
<path d="M15.1004 3.78467L8.82348 5.35248L3.91953 16.7996L7.69066 19.3144L10.8014 13.0953L12.7328 13.6503L11.0257 30.6538H27.7766L28.8187 20.6964L28.9207 19.7788H29.4305L28.8187 13.6503L30.7559 13.0953L33.8598 19.3144L37.632 16.7996L32.7269 5.35248L26.4512 3.78467C25.8281 4.22307 25.0691 4.48814 24.2422 4.68525C23.1773 4.93561 21.9766 5.05228 20.7758 5.05228C19.575 5.05228 18.3742 4.93561 17.3094 4.68525C16.4824 4.48814 15.7234 4.2242 15.1004 3.78467ZM30.7559 21.8179L30.5859 23.4038H50.8406L50.6707 21.8179H30.7559ZM30.3707 25.4429L27.3461 54.2163H34.4488L39.7164 29.6456H41.7102L46.9777 54.2163H54.0805L51.0559 25.4429H30.3707Z" fill="#011034"/>
</svg>

<svg xmlns="http://www.w3.org/2000/svg" width="58" height="58" fill="none" viewBox="0 0 58 58">
  <path fill="#011034" d="M15.1 3.785 8.823 5.352 3.92 16.8l3.77 2.514 3.111-6.219 1.932.555-1.707 17.004h16.75l1.043-9.958.102-.917h.51l-.612-6.129 1.937-.555 3.104 6.22 3.772-2.515-4.905-11.448-6.276-1.567c-.623.438-1.382.703-2.209.9-1.065.25-2.265.367-3.466.367s-2.402-.116-3.467-.367c-.827-.197-1.586-.46-2.209-.9Zm15.656 18.033-.17 1.586h20.255l-.17-1.586H30.756Zm-.385 3.625-3.025 28.773h7.103l5.267-24.57h1.994l5.268 24.57h7.102l-3.024-28.773H30.37Z"/>
</svg>
